src/dsmComponents/Icons/trash-delete-24px.svg

<?xml version="1.0" encoding="UTF-8"?>
<svg width="24px" height="24px" viewBox="0 0 24 24" version="1.1" xmlns="http://www.w3.org/2000/svg" xmlns:xlink="http://www.w3.org/1999/xlink">
    <!-- Generator: Sketch 59.1 (86144) - https://sketch.com -->
    <title>trash-delete-24px</title>
    <desc>Created with Sketch.</desc>
    <defs>
        <path d="M21,8 L21,21 C21,22.6568542 19.6568542,24 18,24 L18,24 L6,24 C4.34314575,24 3,22.6568542 3,21 L3,21 L3,8 L21,8 Z M14.807,0 C15.2237554,0.000156485543 15.5967189,0.258760428 15.743,0.649 L15.743,0.649 L16.625,3 L24,3 L24,6 L0,6 L0,3 L7.375,3 L8.257,0.649 C8.40328113,0.258760428 8.7762446,0.000156485543 9.193,0 L9.193,0 Z" id="path-1"></path>
    </defs>
    <g id="Final" stroke="none" stroke-width="1" fill="none" fill-rule="evenodd">
        <g id="All-Nucleo-Icons" transform="translate(-608.000000, -6806.000000)">
            <g id="Solo/Nucleo/24px/trash-delete" transform="translate(608.000000, 6806.000000)">
                <g id="trash">
                    <g id="Colour/Default-Colour">
                        <mask id="mask-2" fill="white">
                            <use xlink:href="#path-1"></use>
                        </mask>
                        <use id="Mask" fill="#000000" fill-rule="nonzero" xlink:href="#path-1"></use>
                        <g id="colour/neutral/chia" mask="url(#mask-2)" fill="#737373">
                            <g transform="translate(-20.000000, -21.000000)" id="Colour">
                                <rect x="0" y="0" width="64" height="64"></rect>
                            </g>
                        </g>
                    </g>
                </g>
            </g>
        </g>
    </g>
</svg>

<svg width="24" height="24" xmlns="http://www.w3.org/2000/svg" xmlns:xlink="http://www.w3.org/1999/xlink"><defs><path d="M21 8v13a3 3 0 01-3 3H6a3 3 0 01-3-3V8h18zm-6.193-8a1 1 0 01.936.649L16.625 3H24v3H0V3h7.375L8.257.649A1 1 0 019.193 0z" id="trash-delete-24px_svg__a"/></defs><use fill="#737373" xlink:href="#trash-delete-24px_svg__a" fill-rule="evenodd"/></svg>
